Yaru++/emotes/16/face-sleeping.svg

<svg height="16" width="16" xmlns="http://www.w3.org/2000/svg"><path d="m8 0c-4.418281 0-8 3.5817221-8 8 0 4.418278 3.581719 8 8 8s8-3.581722 8-8c0-4.4182779-3.581719-8-8-8zm-2.8222656 5.9160156c.84 0 1.6796875.5102857 1.6796875 1.5-1.7142858-.3862857-3.5725446 1.9805714-3.4296875 0 .072-.9897143.9111429-1.5 1.75-1.5zm5.6445316 0c.838857 0 1.679142.5102857 1.75 1.5.142857 1.9805714-1.715402-.3862857-3.4296879 0 0-.9897143.8396875-1.5 1.6796879-1.5zm-6.0976566 5.1230464c.174919.01962.3666726.098105.5664062.253907.0690369.069543.1394071.135722.2089844.199219.0854098.077858.1717073.151537.2578125.220703.1407572.11263.2816718.213223.4238281.304687.8825787.566854 1.7872985.750531 2.6445313.894531-.0000065.500032-4.999977.793991-5-1-.0001055-.464541.3736804-.931906.8984375-.873047z" fill="#fdc92b" stroke-width="1.142857"/><path d="m8 0c-4.418281 0-8 3.5817221-8 8 0 .0843448.00912729.166284.01171875.25.13315804-4.3016218 3.65434515-7.75 7.98828125-7.75 4.333936 0 7.855123 3.4483782 7.988281 7.75.002592-.083716.011719-.1656552.011719-.25 0-4.4182779-3.581719-8-8-8zm-1.4648438 7.375c-1.4609068-.0592187-2.9241086 1.5284792-3.09375.4648438-.0031107.0264092-.0116981.0490415-.0136718.0761718-.1428571 1.9805714 1.7154017-.3862857 3.4296875 0 0-.1904253-.0395123-.3570095-.0957031-.5117187-.0755463-.0125959-.150796-.0262257-.2265626-.0292969zm2.9296876 0c-.0757666.0030712-.1510163.016701-.2265626.0292969-.0561908.1547092-.0957031.3212934-.0957031.5117187 1.7142859-.3862857 3.5725449 1.9805714 3.4296879 0-.001943-.0271303-.010589-.0497626-.013672-.0761718-.169642 1.0636354-1.632843-.5240625-3.0937502-.4648438zm-5.5917969 4.796875c-.0221031.079348-.0468937.158143-.046875.240234.000023 1.793991 4.9999935 1.500032 5 1-.2939679-.049381-.5941556-.111027-.8964844-.183593-1.3340784.173035-3.7217107.019332-4.0566406-1.056641z" fill="#fff" opacity=".3" stroke-width="1.142857"/><path d="m-1.4486036 292.16957v.26459h.92035734l-.92035734.79168v.002.26458h.095085 1.22783205v-.26458h-.92035775l.92035735-.79117v-.26717zm-1.3229167.52917v.26458h.6407877l-.6407877.52452v.005.26458h.0894.968933v-.26458h-.6459553l.6459553-.52865v-.00052-.26458z" fill="#8f5315" transform="matrix(3.0236216 0 0 3.0236216 16.380029 -883.21128)"/><path d="m5.1777344 5.4160156c-.8388571 0-1.678.5102857-1.75 1.5-.0128655.1783676-.0043561.3107943.0136718.4238282.1103709-.9369975.9204661-1.4238282 1.7363282-1.4238282.6783803 0 1.3481294.3389068 1.5839844.9882813.0318843.0053161.0639041.0045534.0957031.0117187 0-.9897143-.8396875-1.5-1.6796875-1.5zm5.6445316 0c-.8400008 0-1.6796879.5102857-1.6796879 1.5.031799-.0071653.0638188-.0064026.0957031-.0117187.235855-.6493745.9056038-.9882813 1.5839848-.9882813.815862 0 1.626948.4868307 1.736328 1.4238282.018028-.1130339.026537-.2454606.013672-.4238282-.070858-.9897143-.911143-1.5-1.75-1.5zm-10.81054725 2.3339844c-.00259146.083716-.01171875.1656552-.01171875.25 0 4.418278 3.581719 8 8 8s8-3.581722 8-8c0-.0843448-.009127-.166284-.011719-.25-.133158 4.301622-3.654345 7.75-7.988281 7.75-4.3339361 0-7.85512321-3.448378-7.98828125-7.75zm4.71289065 2.789062c-.5247571-.058858-.898543.408506-.8984375.873047.0000012.093191.021292.17758.046875.259766.1029744-.36967.4195377-.68127.8515625-.632813.174919.01962.3666726.098105.5664062.253907.0690369.069543.1394071.135722.2089844.199219.0854098.077857.1717073.151537.2578125.220703.1407572.11263.2816718.213223.4238281.304687.579919.372465 1.1687619.571896 1.7480469.710938.5256955-.068185.8964826-.182407.8964844-.316407-.8572328-.144-1.7619526-.327677-2.6445313-.894531-.1421563-.091464-.2830709-.192057-.4238281-.304687-.0861052-.069166-.1724025-.142844-.2578125-.220703-.0695773-.063497-.1399474-.129679-.2089844-.199219-.1997336-.155797-.3914872-.234287-.5664062-.253907z" opacity=".2" stroke-width="1.142857"/></svg>

<?xml version="1.0" encoding="UTF-8" standalone="no"?>
<svg
   xmlns:dc="http://purl.org/dc/elements/1.1/"
   xmlns:cc="http://creativecommons.org/ns#"
   xmlns:rdf="http://www.w3.org/1999/02/22-rdf-syntax-ns#"
   xmlns:svg="http://www.w3.org/2000/svg"
   xmlns="http://www.w3.org/2000/svg"
   xmlns:sodipodi="http://sodipodi.sourceforge.net/DTD/sodipodi-0.dtd"
   xmlns:inkscape="http://www.inkscape.org/namespaces/inkscape"
   width="16"
   height="16"
   version="1.1"
   id="svg4"
   sodipodi:docname="face-sleeping.svg"
   inkscape:version="0.92.4 (5da689c313, 2019-01-14)">
  <metadata
     id="metadata10">
    <rdf:RDF>
      <cc:Work
         rdf:about="">
        <dc:format>image/svg+xml</dc:format>
        <dc:type
           rdf:resource="http://purl.org/dc/dcmitype/StillImage" />
        <dc:title></dc:title>
      </cc:Work>
    </rdf:RDF>
  </metadata>
  <defs
     id="defs8" />
  <sodipodi:namedview
     pagecolor="#ffffff"
     bordercolor="#666666"
     borderopacity="1"
     objecttolerance="10"
     gridtolerance="10"
     guidetolerance="10"
     inkscape:pageopacity="0"
     inkscape:pageshadow="2"
     inkscape:window-width="1920"
     inkscape:window-height="1016"
     id="namedview6"
     showgrid="false"
     showguides="true"
     inkscape:guide-bbox="true"
     inkscape:zoom="37.285811"
     inkscape:cx="14.39422"
     inkscape:cy="6.9597521"
     inkscape:window-x="0"
     inkscape:window-y="27"
     inkscape:window-maximized="1"
     inkscape:current-layer="svg4">
    <sodipodi:guide
       position="-29.423729,6.0338983"
       orientation="1,0"
       id="guide845"
       inkscape:locked="false" />
  </sodipodi:namedview>
  <path
     style="fill:#fdc92b;fill-opacity:1;stroke-width:1.14285719"
     d="M 8 0 C 3.581719 0 1.1842379e-15 3.5817221 0 8 C 0 12.418278 3.581719 16 8 16 C 12.418281 16 16 12.418278 16 8 C 16 3.5817221 12.418281 0 8 0 z M 5.1777344 5.9160156 C 6.0177344 5.9160156 6.8574219 6.4263013 6.8574219 7.4160156 C 5.1431361 7.0297299 3.2848773 9.396587 3.4277344 7.4160156 C 3.4997344 6.4263013 4.3388773 5.9160156 5.1777344 5.9160156 z M 10.822266 5.9160156 C 11.661123 5.9160156 12.501408 6.4263013 12.572266 7.4160156 C 12.715123 9.396587 10.856864 7.0297299 9.1425781 7.4160156 C 9.1425781 6.4263013 9.9822656 5.9160156 10.822266 5.9160156 z M 4.7246094 11.039062 C 4.8995284 11.058682 5.091282 11.137167 5.2910156 11.292969 C 5.3600525 11.362512 5.4304227 11.428691 5.5 11.492188 C 5.5854098 11.570046 5.6717073 11.643725 5.7578125 11.712891 C 5.8985697 11.825521 6.0394843 11.926114 6.1816406 12.017578 C 7.0642193 12.584432 7.9689391 12.768109 8.8261719 12.912109 C 8.8261654 13.412141 3.8261949 13.7061 3.8261719 11.912109 C 3.8260664 11.447568 4.1998523 10.980203 4.7246094 11.039062 z "
     id="path2" />
  <path
     style="fill:#ffffff;fill-opacity:1;stroke-width:1.14285719;opacity:0.3"
     d="M 8 0 C 3.581719 0 1.1842379e-15 3.5817221 0 8 C 0 8.0843448 0.0091272947 8.166284 0.01171875 8.25 C 0.14487679 3.9483782 3.6660639 0.5 8 0.5 C 12.333936 0.5 15.855123 3.9483782 15.988281 8.25 C 15.990873 8.166284 16 8.0843448 16 8 C 16 3.5817221 12.418281 0 8 0 z M 6.5351562 7.375 C 5.0742494 7.3157813 3.6110476 8.9034792 3.4414062 7.8398438 C 3.4382955 7.866253 3.4297081 7.8888853 3.4277344 7.9160156 C 3.2848773 9.896587 5.1431361 7.5297299 6.8574219 7.9160156 C 6.8574219 7.7255903 6.8179096 7.5590061 6.7617188 7.4042969 C 6.6861725 7.391701 6.6109228 7.3780712 6.5351562 7.375 z M 9.4648438 7.375 C 9.3890772 7.3780712 9.3138275 7.391701 9.2382812 7.4042969 C 9.1820904 7.5590061 9.1425781 7.7255903 9.1425781 7.9160156 C 10.856864 7.5297299 12.715123 9.896587 12.572266 7.9160156 C 12.570323 7.8888853 12.561677 7.866253 12.558594 7.8398438 C 12.388952 8.9034792 10.925751 7.3157813 9.4648438 7.375 z M 3.8730469 12.171875 C 3.8509438 12.251223 3.8261532 12.330018 3.8261719 12.412109 C 3.8261949 14.2061 8.8261654 13.912141 8.8261719 13.412109 C 8.532204 13.362728 8.2320163 13.301082 7.9296875 13.228516 C 6.5956091 13.401551 4.2079768 13.247848 3.8730469 12.171875 z "
     id="path844" />
  <g
     transform="matrix(3.0236216,0,0,3.0236216,16.380029,-883.21128)"
     id="layer1"
     inkscape:label="Capa 1">
    <path
       d="m -1.4486036,292.16957 v 0.26459 h 0.92035734 l -0.92035734,0.79168 v 0.002 0.26458 h 0.095085 1.22783205 v -0.26458 H -1.0460443 l 0.92035735,-0.79117 v -0.26717 z m -1.3229167,0.52917 v 0.26458 h 0.6407877 l -0.6407877,0.52452 v 0.005 0.26458 h 0.0894 0.968933 v -0.26458 h -0.6459553 l 0.6459553,-0.52865 v -5.2e-4 -0.26458 z"
       id="rect4190"
       style="fill:#8f5315;stroke-width:0.99999988"
       inkscape:connector-curvature="0" />
  </g>
  <path
     style="fill:#000000;fill-opacity:1;stroke-width:1.14285719;opacity:0.2"
     d="M 5.1777344 5.4160156 C 4.3388773 5.4160156 3.4997344 5.9263013 3.4277344 6.9160156 C 3.4148689 7.0943832 3.4233783 7.2268099 3.4414062 7.3398438 C 3.5517771 6.4028463 4.3618723 5.9160156 5.1777344 5.9160156 C 5.8561147 5.9160156 6.5258638 6.2549224 6.7617188 6.9042969 C 6.7936031 6.909613 6.8256229 6.9088503 6.8574219 6.9160156 C 6.8574219 5.9263013 6.0177344 5.4160156 5.1777344 5.4160156 z M 10.822266 5.4160156 C 9.9822652 5.4160156 9.1425781 5.9263013 9.1425781 6.9160156 C 9.1743771 6.9088503 9.2063969 6.909613 9.2382812 6.9042969 C 9.4741362 6.2549224 10.143885 5.9160156 10.822266 5.9160156 C 11.638128 5.9160156 12.449214 6.4028463 12.558594 7.3398438 C 12.576622 7.2268099 12.585131 7.0943832 12.572266 6.9160156 C 12.501408 5.9263013 11.661123 5.4160156 10.822266 5.4160156 z M 0.01171875 7.75 C 0.0091272947 7.833716 2.260708e-17 7.9156552 0 8 C 0 12.418278 3.581719 16 8 16 C 12.418281 16 16 12.418278 16 8 C 16 7.9156552 15.990873 7.833716 15.988281 7.75 C 15.855123 12.051622 12.333936 15.5 8 15.5 C 3.6660639 15.5 0.14487679 12.051622 0.01171875 7.75 z M 4.7246094 10.539062 C 4.1998523 10.480204 3.8260664 10.947568 3.8261719 11.412109 C 3.8261731 11.5053 3.8474639 11.589689 3.8730469 11.671875 C 3.9760213 11.302205 4.2925846 10.990605 4.7246094 11.039062 C 4.8995284 11.058682 5.091282 11.137167 5.2910156 11.292969 C 5.3600525 11.362512 5.4304227 11.428691 5.5 11.492188 C 5.5854098 11.570045 5.6717073 11.643725 5.7578125 11.712891 C 5.8985697 11.825521 6.0394843 11.926114 6.1816406 12.017578 C 6.7615596 12.390043 7.3504025 12.589474 7.9296875 12.728516 C 8.455383 12.660331 8.8261701 12.546109 8.8261719 12.412109 C 7.9689391 12.268109 7.0642193 12.084432 6.1816406 11.517578 C 6.0394843 11.426114 5.8985697 11.325521 5.7578125 11.212891 C 5.6717073 11.143725 5.58541 11.070047 5.5 10.992188 C 5.4304227 10.928691 5.3600526 10.862509 5.2910156 10.792969 C 5.091282 10.637172 4.8995284 10.558682 4.7246094 10.539062 z "
     id="path849" />
</svg>
